X:8
T:Polska ur Petter Dufvas notbok (Ma6-8)
R:Polska
O:Verkelbäck, Småland
B:Petter Dufvas notbok
S:Petter Dufva
N:Smus Ma6 bild 11
Z:Till abc Jonas Brunskog
M:3/4
L:1/8
K:G
gd eg fa|gd eg fa|gd ed cB|AG/F/ G2 G,2:|
|:BG cB AG|AG FE FD|BG cB AG|AG/F/ G2 G,2:|

